icons/mobile/24/svg/login-24.svg

<svg width="24" height="24" viewBox="0 0 24 24" fill="none" xmlns="http://www.w3.org/2000/svg">
<path fill-rule="evenodd" clip-rule="evenodd" d="M7 7C9.45422 7 11.4932 8.76862 11.917 11.1006C13.3005 11.0178 14.6911 10.9845 16.0605 11.0078C17.7725 11.0338 19.5088 11.1431 21.2188 11.3291C21.6987 11.3821 22.0461 11.813 21.9941 12.2939C21.9451 12.7419 21.565 13.0742 21.125 13.0742C21.0941 13.0742 21.0622 13.0723 21.0293 13.0693C20.5341 13.0149 20.0363 12.9692 19.5381 12.9287V15.125C19.5381 15.608 19.1461 16 18.6631 16C18.1801 16 17.7881 15.608 17.7881 15.125V12.8164C17.2016 12.788 16.6161 12.766 16.0332 12.7568C14.6749 12.7355 13.2963 12.77 11.9258 12.8535C11.5207 15.2082 9.47035 17 7 17C4.23858 17 2 14.7614 2 12C2 9.23858 4.23858 7 7 7ZM7 8.75C5.20507 8.75 3.75 10.2051 3.75 12C3.75 13.7949 5.20507 15.25 7 15.25C8.79493 15.25 10.25 13.7949 10.25 12C10.25 10.2051 8.79493 8.75 7 8.75Z" fill="black"/>
</svg>

<!-- This Source Code Form is subject to the terms of the Mozilla Public
   - License, v. 2.0. If a copy of the MPL was not distributed with this
   - file, You can obtain one at http://mozilla.org/MPL/2.0/. -->
<svg xmlns="http://www.w3.org/2000/svg" width="24" height="24" fill="none" viewBox="0 0 24 24">
    <path fill="#000" fill-rule="evenodd" d="M7 7a5 5 0 0 1 4.917 4.1 54 54 0 0 1 4.144-.092c1.712.026 3.448.135 5.158.321a.876.876 0 0 1-.19 1.74q-.743-.08-1.49-.14v2.196a.875.875 0 0 1-1.75 0v-2.309a54 54 0 0 0-1.756-.06 54 54 0 0 0-4.107.098A5 5 0 1 1 7 7m0 1.75a3.25 3.25 0 1 0 0 6.5 3.25 3.25 0 0 0 0-6.5" clip-rule="evenodd" />
</svg>
